X: 35807
T: Salt'n Vinegar
R: reel
M: 4/4
K: Adorian
|:AedB AGEF|G2(B/c/)d gedB|AedB c2(A/B/)c|(BE{F}E{D}E) DEGB|
AedB AGEF|G2(B/c/)d g2{a}ge|(f{g}f{e}fd) (e{f}e{d}ed)|1 cBAG EA{B}AG:|2 cBAG EA{B}A2||
|:(a{b}a{g}ag) (e{f}e{d}ef)|gage degb|aged c2(A/B/)c|(BE{F}E{D}E) DEGB|
ae{f}ed e{f}eaf|ga(g/f/e) dG(B/c/d)|c{d}c(A/B/c) (BE{F}E{D}E)|1 DEGB A3z:|2 DEGB A2(E/F/G)||

